X:123
T: VERDENK MIRS NICHT DASS ICH DICH MEIDE
N: E0716
O: Europa, Mitteleuropa, Deutschland, Hessen ?, Odenwald ?
R: Liebes - Lied, Leid, Klage
M: 3/8
L: 1/8
K: Bb
 | FFF | BdB | c2d | edz |
BAG | c2B | A2G | F2z |
FFF | BdB | c2d | edz |
BAG | c2B | A2G | F2z |
ccf | cAF | F2E | EDz |
FDF | Bdf | ecA | B2z |
ccf | cAF | F2E | EDz |
FDF | Bdf | ecA | B2z

@@@ Tune index: 4436
